apps/extension/src/@talisman/theme/icons/polkadot-vault.svg

<?xml version="1.0" encoding="UTF-8"?>
<svg width="80" height="80" viewBox="0 0 80 80" xmlns="http://www.w3.org/2000/svg">
    <g id="Option-3">
        <path id="Option-3-Key-Halo" fill="none" stroke="currentColor" stroke-width="6.171429" d="M 40 76 C 59.882301 76 76 59.882301 76 40 C 76 20.117699 59.882301 4 40 4 C 20.117701 4 4 20.117699 4 40 C 4 59.882301 20.117701 76 40 76 Z"/>
        <path id="Option-3-Key" fill="currentColor" fill-rule="evenodd" stroke="none" d="M 49.297997 38.747978 C 47.403431 41.122589 45.505882 43.772327 45.505882 46.810081 L 45.505882 56.623493 C 45.505882 59.605957 43.088173 62.023529 40.105846 62.023529 C 37.123528 62.023529 34.705948 59.605957 34.705948 56.623493 L 34.705948 46.810081 C 34.705948 43.772327 32.808403 41.122589 30.913836 38.747978 C 29.311068 36.739166 28.353008 34.193241 28.353008 31.423565 C 28.353008 24.932518 33.614937 19.670589 40.105846 19.670589 C 46.596893 19.670589 51.858822 24.932518 51.858822 31.423565 C 51.858822 34.193241 50.900764 36.739166 49.297997 38.747978 Z"/>
    </g>
    <g id="Option-2">
        <path id="Option-2-Background" fill="currentColor" fill-rule="evenodd" stroke="none" visibility="hidden" d="M 12.451172 80 C 5.57447 80 0 74.425491 0 67.548828 L 0 12.451172 C 0 5.574509 5.57447 0 12.451172 0 L 67.548828 0 C 74.425491 0 80 5.574471 80 12.451172 L 80 40 L 80 67.548828 C 80 74.425529 74.425491 80 67.548828 80 L 12.451172 80 Z M 40 66.5625 C 54.670086 66.5625 66.5625 54.670086 66.5625 40 C 66.5625 25.329914 54.670086 13.4375 40 13.4375 C 25.329916 13.4375 13.4375 25.329914 13.4375 40 C 13.4375 54.670086 25.329916 66.5625 40 66.5625 Z"/>
        <path id="Option-2-Key" fill="currentColor" fill-rule="evenodd" stroke="none" visibility="hidden" d="M 46.8605 39.076199 C 45.462601 40.8283 44.0625 42.783401 44.0625 45.024799 L 44.0625 52.265598 C 44.0625 54.466202 42.278599 56.25 40.078098 56.25 C 37.877602 56.25 36.0938 54.466202 36.0938 52.265598 L 36.0938 45.024799 C 36.0938 42.783401 34.693699 40.8283 33.295799 39.076199 C 32.113201 37.594002 31.4063 35.7155 31.4063 33.671902 C 31.4063 28.8825 35.288799 25 40.078098 25 C 44.8675 25 48.75 28.8825 48.75 33.671902 C 48.75 35.7155 48.043098 37.594002 46.8605 39.076199 Z"/>
    </g>
    <g id="Option-1">
        <path id="Option-1-Background" fill="none" stroke="currentColor" stroke-width="6" visibility="hidden" d="M 77 40.5 L 77 14.673187 C 77 8.226273 71.773727 3.000031 65.326851 3.000031 L 13.67315 3 C 7.226236 3 2 8.226273 2 14.673149 L 2 66.326881 C 2 72.773766 7.226236 78 13.67315 78 L 65.326851 78 C 71.773727 78 77 72.773766 77 66.326851 Z"/>
        <path id="Option-1-Key" fill="currentColor" fill-rule="evenodd" stroke="none" visibility="hidden" d="M 46.8605 39.076199 C 45.462601 40.8283 44.0625 42.783401 44.0625 45.024799 L 44.0625 52.265598 C 44.0625 54.466202 42.278599 56.25 40.078098 56.25 C 37.877602 56.25 36.0938 54.466202 36.0938 52.265598 L 36.0938 45.024799 C 36.0938 42.783401 34.693699 40.8283 33.295799 39.076199 C 32.113201 37.594002 31.4063 35.7155 31.4063 33.671902 C 31.4063 28.8825 35.288799 25 40.078098 25 C 44.8675 25 48.75 28.8825 48.75 33.671902 C 48.75 35.7155 48.043098 37.594002 46.8605 39.076199 Z"/>
    </g>
    <g id="Original">
        <path id="Original-Background" fill="#e6007a" stroke="none" visibility="hidden" d="M 40 0 L 40 0 C 62.091389 0 80 17.908607 80 40 L 80 40 C 80 62.091393 62.091389 80 40 80 L 40 80 C 17.908609 80 0 62.091393 0 40 L 0 40 C -0 17.908607 17.908609 0 40 0 Z"/>
        <path id="Original-Key" fill="#ffffff" fill-rule="evenodd" stroke="none" visibility="hidden" d="M 40 66.5625 C 54.670101 66.5625 66.5625 54.670101 66.5625 40 C 66.5625 25.329899 54.670101 13.4375 40 13.4375 C 25.329901 13.4375 13.4375 25.329899 13.4375 40 C 13.4375 54.670101 25.329901 66.5625 40 66.5625 Z M 46.8605 39.076199 C 45.462601 40.8283 44.0625 42.783401 44.0625 45.024799 L 44.0625 52.265598 C 44.0625 54.466202 42.278599 56.25 40.078098 56.25 C 37.877602 56.25 36.0938 54.466202 36.0938 52.265598 L 36.0938 45.024799 C 36.0938 42.783401 34.693699 40.8283 33.295799 39.076199 C 32.113201 37.594002 31.4063 35.7155 31.4063 33.671902 C 31.4063 28.8825 35.288799 25 40.078098 25 C 44.8675 25 48.75 28.8825 48.75 33.671902 C 48.75 35.7155 48.043098 37.594002 46.8605 39.076199 Z"/>
    </g>
</svg>

<svg viewBox="0 0 80 80" xmlns="http://www.w3.org/2000/svg">
    <path fill="none" stroke="currentColor" stroke-width="6.171" d="M40 76c19.882 0 36-16.118 36-36S59.882 4 40 4 4 20.118 4 40s16.118 36 36 36z"/>
    <path fill="currentColor" fill-rule="evenodd" d="M49.298 38.748c-1.895 2.375-3.792 5.024-3.792 8.062v9.813a5.4 5.4 0 11-10.8 0V46.81c0-3.038-1.898-5.687-3.792-8.062a11.703 11.703 0 01-2.561-7.324c0-6.491 5.262-11.753 11.753-11.753 6.49 0 11.753 5.262 11.753 11.753 0 2.77-.958 5.315-2.561 7.324z"/>
</svg>
